X:1
T:Weighed in the Balance
T:Weighed in the Balance
T:Barney Elliott Warren
T:Barney Elliott Warren, 1907
T:Public Domain Courtesy of the Cyber Hymnal™
T:Public Domain Courtesy of the Cyber Hymnal™
C:Barney Elliott Warren
Z:Public Domain
Z:Courtesy of the Cyber Hymnal™
%%score ( 1 2 ) 3
L:1/8
Q:1/4=95
M:6/8
K:E
V:1 treble 
V:2 treble 
V:3 bass 
V:1
 [EB][EG][EG] E[EF][EG] | [DG]2 [DF] E3 | EEE [EG][EF]E | [DF]3- [DF]2 z | %4
w: 1.~Weighed in the bal- ance of|jus- tice true,|Sin- ful the path thou hast|trod; *|
w: 2.~There it will hurt like a|wound- ing dart|When this dread an- swer shall|fall; *|
w: 3.~Weighed by the word which is|giv- en now,|Search it and know thou art|pure; *|
w: 4.~At the tri- bu- nal where|Christ is judge,|Where ev- ery deed is made|known, *|
 [EB][EG][EG] [Ge][Gd][Gc] | [GB]2 E [EG]3 E2 E/E/ E2 [B,F] | [B,E]3- [B,E]2 z ||"^Refrain" B4 BB | %8
w: Weighed and found want- ing— will|it be you? Weighed by the word of|God. *||
w: “Weighed and found want- ing”— ’twill|pierce thy heart At the last judg- ment|call. *|Weighed and found|
w: Un- to its man- dates in|meek- ness bow, Then thou shalt be se-|cure. *||
w: “Weighed and found want- ing” each|guil- ty soul Stands there be- fore His|throne. *||
 [GB] G4 z | c4 cc | [Ec] B4 E | EEE [EG]2 [DF] | [B,E]3- [B,E]2 z |] %13
w: |||||
w: want- ing,|Weighed and found|want- ing, Re-|ject- ed at Hea- ven’s|door. *|
w: |||||
w: |||||
V:2
 x3 E x2 | x3 E3 | EEE x E x | x6 | x6 | x2 E x2 E2 E/E/ E2 x2 | x6 || (GGG G) x2 | x (EEEE) x | %9
 (EEE E) x2 | x (EEEE)E | EEE x3 | x6 |] %13
V:3
 [E,G,][E,B,][E,B,] [E,G,][E,A,][E,B,] | [B,,B,]2 [B,,A,] [E,G,]3 | %2
w: ||
 [C,G,][C,G,][C,G,] [C,C][C,C][C,^A,] | [B,,B,]3- [B,,B,]2 z | %4
w: ||
 [E,G,][E,B,][E,B,] [E,B,][E,B,][E,E] | %5
w: |
 [E,E]2 [E,G,] [E,B,]3 [E,G,]2 [C,G,]/[=C,^^F,]/ [B,,G,]2 [B,,A,] | [E,G,]3- [E,G,]2 z || %7
w: ||
 [E,E][E,E][E,E] [E,E] z2 | [E,B,][E,B,][E,B,] [E,B,][E,B,] z | [A,,A,][A,,A,][A,,A,] [A,,A,] z2 | %10
w: Weighed by the word,|weighed and found want- ing,|Weighed by the word,|
 [E,A,][E,G,][E,G,] [E,G,][E,G,][C,G,] | [=C,^^F,][C,F,][C,G,] [B,,B,]2 [B,,A,] | %12
w: weighed and found want- ing, *||
 [E,G,]3- [E,G,]2 z |] %13
w: |

